epam-assets/icon-sources/18/navigation-arrows_collapse.svg

<svg width="18" height="18" viewBox="0 0 18 18" fill="none" xmlns="http://www.w3.org/2000/svg">
<g id="18/navigation-arrows_collapse">
<path id="icon" fill-rule="evenodd" clip-rule="evenodd" d="M14.6818 2.25L11.2727 5.65909V2.93939H9.75758V8.24242H15.0606V6.72727H12.3409L15.75 3.31818L14.6818 2.25ZM2.93939 9.75758V11.2727H5.65909L2.25 14.6818L3.31818 15.75L6.72727 12.3409V15.0606H8.24242V9.75758H2.93939Z" fill="#6C6F80"/>
</g>
</svg>

<svg xmlns="http://www.w3.org/2000/svg" width="18" height="18" fill="none" viewBox="0 0 18 18">
  <path fill="#6C6F80" fill-rule="evenodd" d="m14.682 2.25-3.41 3.41V2.94H9.759v5.302h5.303V6.727h-2.72l3.409-3.409-1.068-1.068ZM2.939 9.758v1.515h2.72L2.25 14.682l1.068 1.068 3.41-3.41v2.72h1.514V9.759H2.94Z" clip-rule="evenodd"/>
</svg>
